X:569
T: Yujia aichang dagange
N: C1989
O: China, Fujian Lianjiang
S: II, 563]
R: Shange, Yge. Dange]
M: 2/4
L: 1/16
K: D
A3AF2A2 | E2EFA4 | A3Bd2F2 | A4A4
A3AF2A2 | E2EFA4 | A3BF2E2 | D4D4
A2BdA4 | F2FAE4 | F3Ad2B2 | A4A2z2
E3FA4 | B2BdA2A2 | e3fedB2 | d4d2z2

